Catalina-light/apps/64/exit.svg

<?xml version="1.0" encoding="UTF-8" standalone="no"?>
<!-- Created with Inkscape (http://www.inkscape.org/) -->

<svg
   xmlns:dc="http://purl.org/dc/elements/1.1/"
   xmlns:cc="http://creativecommons.org/ns#"
   xmlns:rdf="http://www.w3.org/1999/02/22-rdf-syntax-ns#"
   xmlns:svg="http://www.w3.org/2000/svg"
   xmlns="http://www.w3.org/2000/svg"
   xmlns:sodipodi="http://sodipodi.sourceforge.net/DTD/sodipodi-0.dtd"
   xmlns:inkscape="http://www.inkscape.org/namespaces/inkscape"
   width="64"
   height="64"
   viewBox="0 0 16.933333 16.933334"
   version="1.1"
   id="svg8"
   inkscape:version="0.92.4 (5da689c313, 2019-01-14)"
   sodipodi:docname="session.svg">
  <defs
     id="defs2" />
  <sodipodi:namedview
     id="base"
     pagecolor="#ffffff"
     bordercolor="#666666"
     borderopacity="1.0"
     inkscape:pageopacity="0.0"
     inkscape:pageshadow="2"
     inkscape:zoom="7.9195959"
     inkscape:cx="38.02831"
     inkscape:cy="29.939098"
     inkscape:document-units="mm"
     inkscape:current-layer="layer1"
     showgrid="false"
     units="px"
     inkscape:window-width="1920"
     inkscape:window-height="1023"
     inkscape:window-x="0"
     inkscape:window-y="29"
     inkscape:window-maximized="1" />
  <metadata
     id="metadata5">
    <rdf:RDF>
      <cc:Work
         rdf:about="">
        <dc:format>image/svg+xml</dc:format>
        <dc:type
           rdf:resource="http://purl.org/dc/dcmitype/StillImage" />
        <dc:title></dc:title>
      </cc:Work>
    </rdf:RDF>
  </metadata>
  <g
     inkscape:label="Capa 1"
     inkscape:groupmode="layer"
     id="layer1"
     transform="translate(0,-280.06665)">
    <path
       style="opacity:1;fill:#25282d;fill-opacity:0.61139891;stroke-width:1.07655489"
       d="M 32.099609 2.2148438 C 15.457209 2.2143902 1.9654595 15.705263 1.9648438 32.347656 C 1.9643741 48.990806 15.456442 62.482875 32.099609 62.482422 C 48.742014 62.481817 62.232891 48.99005 62.232422 32.347656 C 62.231806 15.706018 48.741247 2.2154485 32.099609 2.2148438 z M 32.095703 11.056641 C 37.958421 11.056641 43.306431 13.445095 47.15625 17.294922 A 2.8349291 2.8349291 0 1 1 43.146484 21.302734 C 40.3162 18.472473 36.426474 16.726562 32.095703 16.726562 C 23.434167 16.726562 16.476565 23.68416 16.476562 32.345703 C 16.476565 41.007246 23.434167 47.974609 32.095703 47.974609 C 36.426474 47.974609 40.3162 46.226746 43.146484 43.396484 A 2.8353327 2.8353327 0 0 1 47.15625 47.40625 C 43.306431 51.256039 37.958421 53.642578 32.095703 53.642578 C 20.370259 53.642578 10.806644 44.071158 10.806641 32.345703 C 10.806644 20.620248 20.370259 11.056641 32.095703 11.056641 z M 48.335938 23.705078 L 57.943359 32.574219 L 51.367188 38.640625 L 48.335938 41.443359 L 48.335938 35.402344 L 32.414062 35.402344 A 2.834961 2.834961 0 0 1 32.414062 29.732422 L 48.335938 29.732422 L 48.335938 23.705078 z "
       transform="matrix(0.26458333,0,0,0.26458333,0,280.06665)"
       id="path815" />
    <g
       id="g824"
       transform="translate(0.25985811,-0.31496282)" />
  </g>
</svg>

<svg width="64" height="64" version="1.1" viewBox="0 0 16.933 16.933" xmlns="http://www.w3.org/2000/svg">
<g transform="translate(0 -280.07)">
<path transform="matrix(.26458 0 0 .26458 0 280.07)" d="m32.1 2.2148c-16.642-4.536e-4 -30.134 13.49-30.135 30.133-4.697e-4 16.643 13.492 30.135 30.135 30.135 16.642-6.05e-4 30.133-13.492 30.133-30.135-6.16e-4 -16.642-13.491-30.132-30.133-30.133zm-0.003906 8.8418c5.8627 0 11.211 2.3885 15.061 6.2383a2.8349 2.8349 0 1 1-4.0098 4.0078c-2.8303-2.8303-6.72-4.5762-11.051-4.5762-8.6615 0-15.619 6.9576-15.619 15.619 3e-6 8.6615 6.9576 15.629 15.619 15.629 4.3308 0 8.2205-1.7479 11.051-4.5781a2.8353 2.8353 0 0 1 4.0098 4.0098c-3.8498 3.8498-9.1978 6.2363-15.061 6.2363-11.725 0-21.289-9.5714-21.289-21.297 3e-6 -11.725 9.5636-21.289 21.289-21.289zm16.24 12.648 9.6074 8.8691-6.5762 6.0664-3.0312 2.8027v-6.041h-15.922a2.835 2.835 0 0 1 0-5.6699h15.922v-6.0273z" fill="#25282d" fill-opacity=".6114" stroke-width="1.0766"/>
</g>
</svg>
